X: 1
T: Polons efter Magnus Theorin
R: Slngpolska
B: http://www.smus.se/earkiv/fmk/browselarge.phplang=sw&katalogid=Ma15&bildnr=00004
N: Fr att f en bttre id om bindningar, se uppteckningen p smus.se. Mer information om lten finns i texten som hnger med Vsens skiva.
O:Smland
D:Vsen - http://www.vasen.se/Linneus_vasen.htm|Linnaeus Vsen
Z: 2008-09-12, Nils L
M: 3/4
K: Cm
L: 1/16
CB,CD EDEF TG4 | cBcd edef Tg4 | b2(ba) g2(gf) e2(ed) | {d/2}c2(Bc) dcBA GFED |
CB,CD EDEF TG4 | cBcd edef Tg4 | gbag fagf g2=Bd | Tc4 C8 ::
g2e2 e2g2 g2b2 | b2g2 (agfg) f4 | f2d2 B2d2 f2b2 | g2d2 (e2c2) c4 |
(c2e2) (e2d2) (d2c2) | c2B2 G2(Bd) c4 | (c2>b2) (b2>g2) (g2>f2) | e2>d2 d4 c4 :|
